X: 1
T: Ruidhlidh na Coillich Dhubha
T: Dance of the Black Grouse
C: trad. Scotland / Cape Breton
R: reel
Z: 2020 John Chambers <jc:trillian.mit.edu>
S: Email from Sue Chari 2020-8-20 (condensed version)
M: C|
L: 1/8
K: A
   cd | e2cB A2Ac | f2fa eccd | e2cB A2Ac | f2ec B2 :|
|: BA | BccB c2ce | faf2 eccB | BccB {B}c2ce | f2ec B2 :|
